static/images/mobile/copyright/wikipedia-wordmark-gu.svg

<?xml version="1.0" encoding="UTF-8"?>
<svg width="120px" height="21px" viewBox="0 0 120 21" version="1.1" xmlns="http://www.w3.org/2000/svg" xmlns:xlink="http://www.w3.org/1999/xlink">
    <title>wikipedia-wordmark-gu</title>
    <g id="Page-1" stroke="none" stroke-width="1" fill="none" fill-rule="evenodd">
        <path d="M8.55849057,0.294339623 C11.5471698,0.339622642 13.9169811,1.04150943 15.6679245,2.4 C16.6641509,3.18490566 17.2981132,3.93962264 17.5698113,4.66415094 C17.6171252,4.87706346 17.6551699,5.05058179 17.6839453,5.18470593 L24.1811321,5.18490566 L21.9169811,6.31698113 L21.9169811,18.9735849 L24.2037736,20.1056604 L16.7773585,20.1056604 L19.0415094,18.9735849 L19.0641509,6.31698113 L17.713,5.654 L17.6603774,5.84150943 C17.6,5.97735849 17.4641509,6.06037736 17.2528302,6.09056604 C17.0415094,6.24150943 16.8,6.3245283 16.5283019,6.33962264 L15.9849057,6.2490566 C15.6528302,6.14339623 15.3509434,5.95471698 15.0792453,5.68301887 L14.5358491,4.86792453 C14.0226415,4.21886792 13.4188679,3.70566038 12.7245283,3.32830189 C11.7283019,2.78490566 10.5962264,2.51320755 9.32830189,2.51320755 C8.03018868,2.51320755 7.03396226,2.9509434 6.33962264,3.82641509 C5.6754717,4.62641509 5.34339623,5.63773585 5.34339623,6.86037736 L5.34339623,19.0641509 L7.65283019,20.1735849 L0,20.1735849 L2.44528302,19.0641509 L2.49056604,6.86037736 C2.49056604,4.82264151 3.00377358,3.23018868 4.03018868,2.08301887 C5.08679245,0.890566038 6.59622642,0.294339623 8.55849057,0.294339623 Z M13.9698113,6.76981132 C14.8301887,6.76981132 15.6679245,6.91320755 16.4830189,7.2 C16.8150943,7.53207547 17.0339623,7.8490566 17.1396226,8.1509434 L17.1169811,8.62641509 C17.0415094,8.94339623 16.8301887,9.2 16.4830189,9.39622642 C16,9.24528302 15.4037736,9.16981132 14.6943396,9.16981132 C13.8339623,9.23018868 13.2226415,9.41132075 12.8603774,9.71320755 C12.2716981,10.1811321 11.9773585,10.9962264 11.9773585,12.1584906 C11.9773585,14.1660377 13.0943396,15.1698113 15.3283019,15.1698113 C16.1283019,15.1698113 16.9584906,14.9056604 17.8188679,14.3773585 C18.4679245,13.9849057 18.8603774,13.6830189 18.9962264,13.4716981 L19.0415094,16.2339623 C17.5924528,17.3811321 16.090566,17.954717 14.5358491,17.954717 C12.9811321,17.954717 11.7207547,17.5396226 10.754717,16.709434 C9.54716981,15.6377358 8.94339623,14.0226415 8.94339623,11.8641509 C8.94339623,10.2792453 9.4490566,9.02641509 10.4603774,8.10566038 C11.3358491,7.32075472 12.5056604,6.8754717 13.9698113,6.76981132 Z M32.8981132,0.294339623 C35.8867925,0.339622642 38.2566038,1.04150943 40.0075472,2.4 C41.0037736,3.18490566 41.6377358,3.93962264 41.909434,4.66415094 C41.9822701,4.99191375 42.0331399,5.22631907 42.0620431,5.3673669 C42.076977,5.37988379 42.0947392,5.39516093 42.1132075,5.41132075 L42.2943396,5.34339623 C42.445283,5.25283019 42.8075472,4.84528302 43.3811321,4.12075472 C43.5320755,3.90943396 43.6377358,3.80377358 43.6981132,3.80377358 L42.5660377,9.39622642 L42.1584906,7.81132075 C42.0377358,7.55471698 41.8716981,7.40377358 41.6603774,7.35849057 C41.2377358,7.22264151 40.754717,7.15471698 40.2113208,7.15471698 C38.6415094,7.15471698 37.8415094,7.58490566 37.8113208,8.44528302 L37.9018868,9.05660377 C37.9924528,9.41886792 38.2490566,9.75849057 38.6716981,10.0754717 C39.0641509,10.3773585 39.3962264,10.5283019 39.6679245,10.5283019 L44.8301887,9.46415094 L45.3735849,9.48679245 C45.554717,9.54716981 45.6603774,9.71320755 45.690566,9.98490566 C45.7509434,10.0603774 45.7811321,10.1660377 45.7811321,10.3018868 L45.690566,10.9358491 C45.6603774,11.0415094 45.6150943,11.154717 45.554717,11.2754717 L45.1924528,11.7283019 L41.7509434,12.2037736 C43.8037736,13.2301887 44.8301887,14.5584906 44.8301887,16.1886792 C44.8301887,18.8301887 42.9584906,20.1509434 39.2150943,20.1509434 C37.9773585,20.1509434 36.6792453,19.7433962 35.3207547,18.9283019 L34.3698113,18.090566 L32.4679245,18.4754717 L36.9056604,14.2867925 L36.7245283,14.8301887 C36.3924528,15.6 36.2264151,16.090566 36.2264151,16.3018868 C36.2264151,16.3924528 36.2566038,16.4603774 36.3169811,16.5056604 C36.4679245,16.6415094 36.6339623,16.7924528 36.8150943,16.9584906 C37.6603774,17.6226415 38.4603774,17.954717 39.2150943,17.954717 C39.9396226,17.954717 40.5886792,17.7735849 41.1622642,17.4113208 C41.8264151,17.0037736 42.1584906,16.4301887 42.1584906,15.690566 C42.1584906,14.890566 41.7660377,14.1283019 40.9811321,13.4037736 C40.3471698,12.8603774 39.9245283,12.5886792 39.7132075,12.5886792 L34.9132075,13.7207547 L34.0981132,13.4037736 C33.7962264,13.1924528 33.645283,12.9509434 33.645283,12.6792453 C33.645283,12.6188679 33.6603774,12.5584906 33.690566,12.4981132 L33.7358491,12.1132075 C33.7962264,11.9018868 33.9471698,11.7056604 34.1886792,11.5245283 L37.8113208,11.0037736 C37.5396226,11.0037736 37.0415094,10.7245283 36.3169811,10.1660377 C35.4415094,9.50188679 35.0037736,8.77735849 35.0037736,7.99245283 C35.0037736,6.92075472 35.4566038,6.12830189 36.3622642,5.61509434 C37.0642198,5.20796008 37.9228672,4.99016182 38.9382065,4.96169955 L38.8754717,4.86792453 C38.3622642,4.21886792 37.7584906,3.70566038 37.0641509,3.32830189 C36.0679245,2.78490566 34.9358491,2.51320755 33.6679245,2.51320755 C32.3698113,2.51320755 31.3735849,2.9509434 30.6792453,3.82641509 C30.0150943,4.62641509 29.6830189,5.63773585 29.6830189,6.86037736 L29.6830189,19.0641509 L31.9924528,20.1735849 L24.3396226,20.1735849 L26.7849057,19.0641509 L26.8301887,6.86037736 C26.8301887,4.82264151 27.3433962,3.23018868 28.3698113,2.08301887 C29.4264151,0.890566038 30.9358491,0.294339623 32.8981132,0.294339623 Z M60.9283019,0 C62.9811321,0 64.9283019,0.883018868 66.7698113,2.6490566 C68.2037736,4.30943396 68.9207547,6.02264151 68.9207547,7.78867925 L68.9207547,19.0415094 L71.1396226,20.1283019 L64.0075472,20.1283019 L66.2716981,19.0415094 L66.3169811,7.78867925 C66.3169811,7.26037736 65.8490566,6.12830189 64.9132075,4.39245283 C64.0679245,2.98867925 62.9660377,2.27169811 61.6075472,2.24150943 L60.7924528,2.28679245 C59.9471698,2.43773585 59.5245283,2.97358491 59.5245283,3.89433962 C59.5245283,4.19118669 59.5727748,4.52287848 59.6692679,4.88941497 L62.5811321,4.89056604 L60.3169811,6.02264151 L60.3169811,18.9509434 L62.5358491,20.1056604 L55.3584906,20.1056604 L57.7132075,18.9509434 L57.7122252,6.42127709 C57.3212099,6.27391997 57.0959388,6.03264119 57.0364117,5.69744076 L55.3584906,4.89056604 L56.4454964,4.89173377 C56.4231655,4.84786094 56.4004528,4.80218868 56.3773585,4.75471698 L56.309434,3.6 L56.1962264,3.32830189 C56.2867925,1.10943396 57.8641509,0 60.9283019,0 Z M47.5245283,2.60377358 L48.6566038,4.89056604 L50.3773585,5.09433962 C50.9207547,5.15471698 51.4037736,5.39622642 51.8264151,5.81886792 C52.2490566,6.28679245 52.4603774,6.92830189 52.4603774,7.74339623 L52.4603774,12.9509434 C52.4603774,13.3886792 52.7018868,13.8641509 53.1849057,14.3773585 C53.5018868,14.709434 54,14.8075472 54.6792453,14.6716981 L55.6754717,14.5584906 L56.6037736,14.3320755 C57.1773585,14.1962264 57.5396226,13.9924528 57.690566,13.7207547 L57.690566,16.2792453 C57.3735849,16.2792453 56.9660377,16.3698113 56.4679245,16.5509434 C55.8188679,16.7773585 55.0566038,16.9056604 54.1811321,16.9358491 L54,16.9358491 C52.5811321,16.6490566 51.6,16.3018868 51.0566038,15.8943396 C50.1962264,15.2754717 49.7660377,14.2490566 49.7660377,12.8150943 L49.7660377,7.99245283 C49.8264151,7.73584906 49.7962264,7.56226415 49.6754717,7.47169811 C49.5849057,7.3509434 49.4188679,7.29056604 49.1773585,7.29056604 L48.6566038,7.29056604 L47.5245283,9.57735849 L47.5245283,2.60377358 Z M79.9245283,0.294339623 C82.9132075,0.339622642 85.2830189,1.04150943 87.0339623,2.4 C88.0301887,3.18490566 88.6641509,3.93962264 88.9358491,4.66415094 C88.9785523,4.85631561 89.0137049,5.01638975 89.0413067,5.14437335 C89.3509434,4.92830189 89.6377358,4.44528302 89.909434,3.69056604 C89.9698113,3.53962264 90,3.40377358 90,3.28301887 C89.9716981,3.89150943 89.9566627,5.01739387 89.9548939,6.66067217 L89.954717,9.71320755 C89.7735849,9.01886792 89.5169811,8.4 89.1849057,7.85660377 C89.0339623,7.66037736 88.9132075,7.54716981 88.8226415,7.51698113 C88.4603774,7.41132075 88.0679245,7.35849057 87.645283,7.35849057 C86.3169811,7.35849057 85.6528302,7.89433962 85.6528302,8.96603774 C85.6528302,9.41886792 85.9849057,9.81132075 86.6490566,10.1433962 C87.0113208,10.3396226 87.645283,10.5811321 88.5509434,10.8679245 C89.6075472,11.2754717 90.4226415,11.8415094 90.9962264,12.5660377 C91.6301887,13.2754717 91.9471698,14.1207547 91.9471698,15.1018868 C91.9471698,16.8075472 91.4490566,18.1056604 90.4528302,18.9962264 C89.5773585,19.7811321 88.445283,20.1735849 87.0566038,20.1735849 C85.6679245,20.1735849 84.4,19.6754717 83.2528302,18.6792453 C82.890566,18.3773585 82.5886792,18.0830189 82.3471698,17.7962264 C82.2867925,17.7207547 82.2113208,17.6830189 82.1207547,17.6830189 C82.0603774,17.6830189 81.6528302,17.8415094 80.8981132,18.1584906 C80.6264151,18.2792453 80.354717,18.3924528 80.0830189,18.4981132 L84.8377358,13.6301887 L84.7018868,14.1056604 C84.3396226,15.0415094 84.1584906,15.6226415 84.1584906,15.8490566 L84.2037736,16.0981132 L84.2037736,16.1207547 L84.6113208,16.5962264 C85.3962264,17.4415094 86.1735849,17.8641509 86.9433962,17.8641509 C87.7132075,17.8641509 88.3698113,17.6301887 88.9132075,17.1622642 C89.4264151,16.709434 89.6830189,16.1509434 89.6830189,15.4867925 L89.5924528,14.8754717 C89.4113208,14.1056604 88.7924528,13.5320755 87.7358491,13.154717 C86.3471698,12.6716981 85.3056604,12.1584906 84.6113208,11.6150943 C83.8264151,10.9056604 83.4339623,10.0603774 83.4339623,9.07924528 L83.4792453,8.06037736 C83.735966,6.56672939 84.6331892,5.636904 86.1709149,5.2709012 L85.9018868,4.86792453 C85.3886792,4.21886792 84.7849057,3.70566038 84.090566,3.32830189 C83.0943396,2.78490566 81.9622642,2.51320755 80.6943396,2.51320755 C79.3962264,2.51320755 78.4,2.9509434 77.7056604,3.82641509 C77.0415094,4.62641509 76.709434,5.63773585 76.709434,6.86037736 L76.709434,19.0641509 L79.0188679,20.1735849 L71.3660377,20.1735849 L73.8113208,19.0641509 L73.8566038,6.86037736 C73.8566038,4.82264151 74.3698113,3.23018868 75.3962264,2.08301887 C76.4528302,0.890566038 77.9622642,0.294339623 79.9245283,0.294339623 Z M110.69434,20.1056604 L103.516981,20.1056604 L105.826415,18.9962264 L105.826415,5.88679245 L103.516981,4.75471698 L110.69434,4.75471698 L108.203774,5.88679245 L108.203774,18.9962264 L110.69434,20.1056604 Z M105.781132,16.9358491 C104.271698,18.0377358 102.732075,18.5886792 101.162264,18.5886792 C99.4113208,18.5886792 97.8415094,18.0377358 96.4528302,16.9358491 C94.9735849,15.7735849 94.2339623,14.2792453 94.2339623,12.4528302 L94.2339623,12.2716981 C94.2339623,11.9396226 94.3849057,11.6377358 94.6867925,11.3660377 C94.9584906,11.154717 95.290566,11.0490566 95.6830189,11.0490566 L98.1283019,11.0490566 C98.6716981,11.0490566 99.1396226,10.8528302 99.5320755,10.4603774 C99.8641509,10.0830189 100.030189,9.63018868 100.030189,9.10188679 C100.030189,7.95471698 99.4566038,7.38113208 98.309434,7.38113208 L97.2226415,7.38113208 L96.1358491,9.66792453 L96.1358491,2.69433962 L97.2226415,4.98113208 L99.8490566,4.98113208 C100.815094,4.98113208 101.6,5.38867925 102.203774,6.20377358 C102.807547,7.03396226 103.109434,8.03018868 103.109434,9.19245283 C103.109434,9.82641509 102.90566,10.4754717 102.498113,11.1396226 C101.758491,12.3169811 100.890566,12.9056604 99.8943396,12.9056604 C99.8037736,12.9056604 99.5320755,12.8830189 99.0792453,12.8377358 C98.8377358,12.8075472 98.5811321,12.7924528 98.309434,12.7924528 C97.8566038,12.7924528 97.6150943,13.0113208 97.5849057,13.4490566 L97.6301887,14.0603774 C97.7207547,14.4377358 97.9471698,14.7924528 98.309434,15.1245283 C98.9735849,15.7735849 99.8490566,16.0981132 100.935849,16.0981132 C102.022642,16.0981132 103.124528,15.7886792 104.241509,15.1698113 C105.056604,14.7320755 105.584906,14.3471698 105.826415,14.0150943 L105.781132,16.9358491 Z M115.154717,12.2943396 L115.154717,18.8377358 L112.709434,20.0830189 L120,20.0830189 L117.554717,18.8603774 L117.554717,6 L120,4.77735849 L112.664151,4.77735849 L115.154717,6.02264151 L115.154717,9.96226415 L115.154717,12.2943396 Z" id="wikipedia-wordmark-gu" fill="#000000" fill-rule="nonzero"></path>
    </g>
</svg>

<svg xmlns="http://www.w3.org/2000/svg" width="120" height="21"><path fill="#000" fill-rule="nonzero" d="M8.558.294c2.99.046 5.359.748 7.11 2.106.996.785 1.63 1.54 1.902 2.264l.114.52h6.497l-2.264 1.133v12.657l2.287 1.132h-7.427l2.265-1.132.022-12.657-1.351-.663-.053.188c-.06.135-.196.218-.407.249-.211.15-.453.234-.725.249l-.543-.09a2.231 2.231 0 0 1-.906-.567l-.543-.815a5.868 5.868 0 0 0-1.811-1.54c-.997-.543-2.129-.815-3.397-.815-1.298 0-2.294.438-2.988 1.313-.665.8-.997 1.812-.997 3.034v12.204l2.31 1.11H0l2.445-1.11.046-12.204c0-2.037.513-3.63 1.54-4.777C5.086.891 6.595.294 8.557.294ZM13.97 6.77c.86 0 1.698.143 2.513.43.332.332.551.65.657.95l-.023.476c-.075.317-.287.574-.634.77-.483-.15-1.08-.226-1.789-.226-.86.06-1.471.241-1.834.543-.588.468-.883 1.283-.883 2.445 0 2.008 1.117 3.012 3.351 3.012.8 0 1.63-.264 2.49-.793.65-.392 1.042-.694 1.178-.905l.046 2.762c-1.45 1.147-2.951 1.72-4.506 1.72-1.555 0-2.815-.414-3.781-1.245-1.208-1.071-1.812-2.686-1.812-4.845 0-1.585.506-2.838 1.517-3.758.876-.785 2.046-1.23 3.51-1.336ZM32.898.294c2.989.046 5.359.748 7.11 2.106.996.785 1.63 1.54 1.901 2.264.073.328.124.562.153.703l.051.044.181-.068c.151-.09.514-.498 1.087-1.222.151-.212.257-.317.317-.317l-1.132 5.592-.408-1.585c-.12-.256-.286-.407-.498-.453a4.732 4.732 0 0 0-1.449-.203c-1.57 0-2.37.43-2.4 1.29l.09.612c.091.362.348.701.77 1.018.393.302.725.453.997.453l5.162-1.064.544.023c.18.06.286.226.317.498.06.075.09.181.09.317l-.09.634c-.03.106-.076.219-.136.34l-.363.452-3.441.476c2.053 1.026 3.08 2.354 3.08 3.985 0 2.641-1.873 3.962-5.616 3.962-1.238 0-2.536-.408-3.894-1.223l-.951-.837-1.902.384 4.438-4.188-.181.543c-.333.77-.499 1.26-.499 1.472 0 .09.03.158.091.204.15.136.317.286.498.452.845.665 1.645.997 2.4.997a3.57 3.57 0 0 0 1.947-.544c.664-.407.996-.98.996-1.72 0-.8-.392-1.563-1.177-2.287-.634-.544-1.056-.815-1.268-.815l-4.8 1.132-.815-.317c-.302-.212-.453-.453-.453-.725 0-.06.015-.12.046-.18l.045-.386c.06-.211.211-.407.453-.588l3.622-.521c-.271 0-.77-.28-1.494-.838-.875-.664-1.313-1.389-1.313-2.174 0-1.071.453-1.864 1.358-2.377.702-.407 1.56-.625 2.576-.653l-.063-.094a5.868 5.868 0 0 0-1.81-1.54c-.997-.543-2.13-.815-3.397-.815-1.298 0-2.294.438-2.989 1.313-.664.8-.996 1.812-.996 3.034v12.204l2.31 1.11H24.34l2.445-1.11.045-12.204c0-2.037.513-3.63 1.54-4.777C29.426.891 30.936.294 32.898.294ZM60.928 0c2.053 0 4 .883 5.842 2.65 1.434 1.66 2.15 3.373 2.15 5.139v11.253l2.22 1.086h-7.132l2.264-1.086.045-11.253c0-.529-.468-1.66-1.404-3.397-.845-1.403-1.947-2.12-3.305-2.15l-.816.045c-.845.15-1.267.687-1.267 1.607 0 .297.048.629.144.995l2.912.002-2.264 1.132V18.95l2.219 1.155h-7.178l2.355-1.155V6.42c-.392-.147-.617-.388-.677-.724l-1.678-.806h1.087a8.492 8.492 0 0 1-.068-.136L56.31 3.6l-.113-.272C56.286 1.11 57.864 0 60.928 0ZM47.525 2.604l1.132 2.287 1.72.203c.544.06 1.027.302 1.45.725.422.468.633 1.11.633 1.924v5.208c0 .438.242.913.725 1.426.317.332.815.43 1.494.295l.996-.114.929-.226c.573-.136.936-.34 1.087-.611v2.558c-.317 0-.725.09-1.223.272-.65.226-1.411.355-2.287.385H54c-1.419-.287-2.4-.634-2.943-1.042-.86-.619-1.291-1.645-1.291-3.079V7.992c.06-.256.03-.43-.09-.52-.091-.121-.257-.181-.499-.181h-.52l-1.132 2.286V2.604Zm32.4-2.31c2.988.046 5.358.748 7.109 2.106.996.785 1.63 1.54 1.902 2.264l.105.48c.31-.216.597-.699.868-1.453.06-.151.091-.287.091-.408-.028.609-.043 1.734-.045 3.378v3.052a6.857 6.857 0 0 0-.77-1.856c-.151-.197-.272-.31-.362-.34a4.19 4.19 0 0 0-1.178-.159c-1.328 0-1.992.536-1.992 1.608 0 .453.332.845.996 1.177.362.197.996.438 1.902.725 1.057.407 1.872.974 2.445 1.698.634.71.951 1.555.951 2.536 0 1.706-.498 3.004-1.494 3.894-.876.785-2.008 1.178-3.396 1.178-1.39 0-2.657-.499-3.804-1.495a7.247 7.247 0 0 1-.906-.883.279.279 0 0 0-.226-.113c-.06 0-.468.159-1.223.475-.272.121-.543.234-.815.34l4.755-4.868-.136.476c-.362.936-.544 1.517-.544 1.743l.046.25v.022l.407.475c.785.846 1.563 1.268 2.332 1.268.77 0 1.427-.234 1.97-.702.513-.453.77-1.011.77-1.675l-.09-.612c-.182-.77-.8-1.343-1.857-1.72-1.389-.483-2.43-.997-3.125-1.54-.785-.71-1.177-1.555-1.177-2.536l.045-1.019c.257-1.493 1.154-2.423 2.692-2.79l-.27-.402a5.868 5.868 0 0 0-1.81-1.54c-.997-.543-2.129-.815-3.397-.815-1.298 0-2.294.438-2.988 1.313-.664.8-.997 1.812-.997 3.034v12.204l2.31 1.11h-7.653l2.445-1.11.046-12.204c0-2.037.513-3.63 1.54-4.777C76.452.891 77.961.294 79.924.294Zm30.77 19.812h-7.178l2.31-1.11V5.886l-2.31-1.131h7.177l-2.49 1.132v13.11l2.49 1.109Zm-4.914-3.17c-1.51 1.102-3.049 1.653-4.619 1.653-1.75 0-3.32-.551-4.71-1.653-1.478-1.162-2.218-2.657-2.218-4.483v-.181c0-.332.15-.634.453-.906.271-.211.604-.317.996-.317h2.445c.544 0 1.012-.196 1.404-.589.332-.377.498-.83.498-1.358 0-1.147-.573-1.72-1.72-1.72h-1.087l-1.087 2.286V2.694l1.087 2.287h2.626c.966 0 1.751.408 2.355 1.223.604.83.905 1.826.905 2.988 0 .634-.203 1.283-.61 1.948-.74 1.177-1.608 1.766-2.605 1.766-.09 0-.362-.023-.815-.068a6.213 6.213 0 0 0-.77-.046c-.452 0-.694.22-.724.657l.045.611c.09.378.317.732.68 1.065.664.649 1.54.973 2.626.973 1.087 0 2.189-.31 3.306-.928.815-.438 1.343-.823 1.584-1.155l-.045 2.92Zm9.374-4.642v6.544l-2.446 1.245H120l-2.445-1.223V6L120 4.777h-7.336l2.49 1.246v6.271Z"/></svg>
